svgs/sharp-light/object-group.svg

<svg xmlns="http://www.w3.org/2000/svg" viewBox="0 0 576 512"><!--! Font Awesome Pro 6.6.0 by @fontawesome - https://fontawesome.com License - https://fontawesome.com/license (Commercial License) Copyright 2024 Fonticons, Inc. --><path d="M64 64l0 32 16 0 16 0 0-16 0-16L64 64zm0 64l-32 0 0-32 0-32 0-32 32 0 32 0 32 0 0 32 320 0 0-32 32 0 32 0 32 0 0 32 0 32 0 32-32 0 0 256 32 0 0 32 0 32 0 32-32 0-32 0-32 0 0-32-320 0 0 32-32 0-32 0-32 0 0-32 0-32 0-32 32 0 0-256zM96 448l0-16 0-16-16 0-16 0 0 32 32 0zm32-32l320 0 0-16 0-16 16 0 16 0 0-256-16 0-16 0 0-16 0-16L128 96l0 16 0 16-16 0-16 0 0 256 16 0 16 0 0 16 0 16zm0-288l0 16 0 128 0 16 16 0 160 0 16 0 0-16 0-128 0-16-16 0-160 0-16 0zM448 384l-16 0-160 0-16 0 0-16 0-32 0-16 32 0 0 16 0 16 128 0 0-96-48 0-16 0 0-32 16 0 64 0 16 0 0 16 0 128 0 16zm32 64l32 0 0-32-16 0-16 0 0 16 0 16zm0-384l0 16 0 16 16 0 16 0 0-32-32 0zM160 160l128 0 0 96-128 0 0-96z"/></svg>

<svg xmlns="http://www.w3.org/2000/svg" viewBox="0 0 576 512"><!--! Font Awesome Pro 6.4.2 by @fontawesome - https://fontawesome.com License - https://fontawesome.com/license (Commercial License) Copyright 2023 Fonticons, Inc. --><path d="M64 64V96H80 96V80 64H64zm0 64H32V96 64 32H64 96h32V64H448V32h32 32 32V64 96v32H512V384h32v32 32 32H512 480 448V448H128v32H96 64 32V448 416 384H64V128zM96 448V432 416H80 64v32H96zm32-32H448V400 384h16 16V128H464 448V112 96H128v16 16H112 96V384h16 16v16 16zm0-288v16V272v16h16H304h16V272 144 128H304 144 128zM448 384H432 272 256V368 336 320h32v16 16H416V256H368 352V224h16 64 16v16V368v16zm32 64h32V416H496 480v16 16zm0-384V80 96h16 16V64H480zM160 160H288v96H160V160z"/></svg>
